X:231
T:Irish Spring
C:Ricky Skaggs
N:Transcribed by Kim Davis and Mike Stangeland
R:bluegrass
L:1/8
Q:1/4=214
M:4/4
K:Bb
z6 F/D/_G |: "Gm"GA BG "F"AG _GA | "Gm"G2 D2 Dd F_G | "Gm"GA BG "F"AG _GA |1 G2 D2 G2 F/D/_G :|2 G2 D2 G2 Bc | 
|: "Bb"dc de dc B2 | "D7"cB A2 AG A2 | "Gm"B2 G2 GA BG | "F"A2 F2 F2 FF | "Eb"ED EF GF EF | 
"D7"G2 D2 Dd (3DF_G | "Gm"GA BG "D7"AG _GA |1 G2 D2 G2 Bc :|2 G2 D2 G2 dg |: "Gm"ff gg gg dd | 
"F"gg Bc fc cd | "Gm"fg Bd gg dd | "D7"gg dc "Gm"BA G2 :| 


